X:1
T:The Winds of Winter
T:Game of Thrones 
T:Ramin Djawadi
%%score { 1 | ( 2 3 4 ) }
L:1/8
Q:1/4=115
M:4/4
K:Eb
V:1 treble nm="Part_1"
V:2 bass 
V:3 bass 
V:4 bass 
V:1
!p! C2 G,2 C2 E2 | C8 | B,2 G,2 B,2 D2 |!<(! B,8 | C2 A,2 C2 E2 | C8- | C8!<)! | %7
[K:bass]!mf! [E,G,C]2 [E,G,]2 [E,G,C]2 [G,CE]2 | [E,G,C]2 G,,2 C,2 E,2 | %9
 [F,=A,C]2 [F,A,]2 [F,A,C]2 [F,A,CF]2 | [F,=A,C]2 =A,,2 C,2 F,2 | [G,B,D]2 [G,B,]2 [G,B,D]2 [DG]2 | %12
 [G,B,D]2 B,,2 D,2 G,2 | [E,A,CE]2 [A,C]2 [E,A,E]2[K:treble] [EAc]2 | %14
 [A,CEA]2[K:bass] [A,,E,]2 A,2 C2 | [E,G,C]3 [G,C] [G,C]4 | [E,G,C]3 [G,C] [G,C]4 | %17
 [=A,C][CE] [F,A,C]2[K:treble] e2 d2 | de/d/ c6 | [G,B,D]3 [B,D] [B,D]4 | [G,B,D]3 [B,D] [B,D]4 | %21
 [CE][EF] [CE]6- | [CE]8 | [CEG]3 [EG] [CEG]4 | [CEG]3 [EG] [CEG]4 | [CG]B [F=A]6- | [FA]8 | %27
 [B,DG]3 [DG] [DG]4 | [DG]3 [DG] [DG]4 | [CG]B [F=A]6- | [FA]6!f! [CF=Ac]2 |: %31
 [EAce]!>(![cc'][cc'][cc'] [Bb][Bb][Bb][Bb] | [Ff][Ff][Ff][Ff] [Aa][Aa]!>)!!f![D-Gc-d-][DGcd] | %33
 [EGce]!>(![cc'][cc'][cc'] [Bb][Bb][Bb][Bb] | [Ff][Ff][Ff][Ff] [Aa][Aa]!>)!!f![C-E-Gc-][CEGc] | %35
 [EGce]!>(![cc'][cc'][cc'] [Bb][Bb][Bb][Bb] | [Ff][Ff][Ff][Ff] [Aa][Aa]!>)!!f![=B,-G=B-][B,GB] | %37
 [CEGc]!>(![cc'][cc'][cc'] [Bb][Bb][Bb][Bb]!>)! |!f! [DFABd][Aa][Aa][Aa] [Gg][Gg][FGBf][EG] | %39
 [EGce]!>(![Cc][Cc][Cc] [B,B][B,B][B,B][B,B] | [Cc][Dd][Ee][Dd] [Ee]2 [=B,G=B]2!>)! |1!>(! c8- | %42
 c8!>)! |[K:bass]!mf! [G,C]4 [E,G,E]4 | [G,C]4 [E,G,E]4 | [C,=A,C]4 [F,A,F]4 | [C,=A,C]4 [F,A,F]4 | %47
 [C,A,C]4 [E,A,E]4 | [F,B,]4 [D,F,D]4 |!<(! [E,C]4 [E,CE]4 |[K:treble] [F,A,F]4 [A,FA]4 | %51
 [E,G,C]4 [G,CE]4 | [A,CF]4 [CFA]4 | [C,F,A,C]4 [E,A,CE]4 | [F,CF]4 [G,EG]4 | %55
 [F,_DF]4 [A,FA]4!<)! |!f! [FAcf][Bfb] [Acfa]6- | [Acfa]8 |!mf! [EGc]4 [EG]4 | %59
 [CEA][CEB] [Ac]4 A,B, | C2 E,2 E,4 | [EGc]4 [EG]4 | [B,B][Cc] [B,EG]4 G,A, | B,2 E,2 E,4 | %64
 [DGBd]4 [G,DG]4 | [B,DB][CDc] [DGBd]4 B,C | D2 G,2 G,4 | [GBd]4 [DG]4 | %68
 [A-c-e][Acd] [EAc]4- [CE-A-c-][DEAc] |!<(! E2 A,2 A,2 [CFAc]2!<)! :|2!>(! [CEGc]8- | c8!>)! | %72
!mp!!<(! [G,C]4 [CE]4 | [CF]4 [FA]4 | [G,C]4 [CE]4 | [F,B,F]4 [B,DG]4 | [A,CEA]4 [CEAB]4 | %77
 [CFAc]4 .[EAce]4!<)! |!mf! [CEc]4 [G,G]4 | [A,A]>[B,B]- [B,B][Cc]- [Cc]4- | [Cc]8 |] %81
V:2
 C,8- | C,8 | G,,8- | G,,8 | A,,8- | A,,8- | A,,8 | [C,,C,]3 ([C,,C,-] [C,,C,]4) | %8
 [C,,C,]3 C,,- C,,4 | F,,3 F,,- F,,4 | F,,3 F,,- F,,4 | [G,,,G,,]3 [G,,,G,,]- [G,,,G,,]4 | %12
 [G,,,G,,]3 G,,,- G,,,4 | [A,,,A,,]3 ([A,,,A,,-] [A,,,A,,]4) | [A,,,A,,]3 A,,,- A,,,4 | %15
 [C,,C,]2 G,,2 C,2 E,2 | [C,,C,]2 G,,2 C,2 E,2 | [F,,C,]2 =A,,2 C,2 F,2 | [F,,C,]2 =A,,2 C,2 F,2 | %19
 D,2 B,,2 D,2 G,2 | D,2 B,,2 D,2 G,2 | E,2 C,2 E,2 A,2 | E,2 C,2 E,2 A,2 | [C,,C,]2 G,,2 C,2 E,2 | %24
 [C,,C,]2 G,,2 C,2 E,2 | [F,,C,]2 =A,,2 C,2 F,2 | C,2 =A,,2 C,2 F,2 | [G,,G,]2 D,2 G,2 B,2 | %28
 [G,,G,]2 D,2 G,2 B,2 | [F,,C,]2 =A,,2 C,2 F,2 | C,2 =A,,2 C,2 [F,,C,F,]2 |: %31
 [A,,,A,,]3 [A,,,A,,]- [A,,,A,,]2 [A,,,A,,]2 | [F,,,F,,]3 [F,,,F,,]- [F,,,F,,]2 [F,,,F,,]2 | %33
 [C,,C,]3 [C,,C,]- [C,,C,]2 [C,,C,]2 | [B,,,B,,]6 [B,,,B,,]2 | %35
 [F,,,F,,]3 [F,,,F,,]- [F,,,F,,]2 [F,,,F,,]2 | [A,,,A,,]3 [A,,,A,,]- [A,,,A,,]2 [A,,,A,,]2 | %37
 [C,,C,]3 [C,,C,]- [C,,C,]2 [C,,C,]2 | [B,,,B,,]3 [B,,,B,,]- [B,,,B,,]2 [B,,,B,,]2 | %39
 [F,,,F,,]3 [F,,,F,,]- [F,,,F,,]2 [F,,,F,,]2 | [A,,,A,,]3 [A,,,A,,]- [A,,,A,,]2 [A,,,A,,]2 |1 %41
[I:staff -1] G8- | [EG]8 |[I:staff +1] C,3 C,- C,C,, C,,2 | C,3 C,- C,C,, C,,2 | %45
 F,,3 F,,- F,,F,,, F,,,2 | F,,3 F,,- F,,F,,, F,,,2 | A,,3 A,,- A,,A,,, A,,,2 | %48
 B,,3 B,,- B,,B,,, B,,,2 | [C,,C,]3 [C,,C,]- [C,,C,]C,, C,,2 | [F,,,F,,]3 F,,- F,,2 F,,,2 | %51
 [C,,C,]3 [C,,-C,] [C,,C,]C,, C,,2 | [F,,,F,,]3 [F,,,F,,]- [F,,,F,,]F,,, F,,,2 | %53
 [F,,,F,,]3 [F,,,F,,]- [F,,,F,,]F,,, F,,,2 | [E,,,E,,]3 [E,,,E,,]- [E,,,E,,]E,,, E,,,2 | %55
 [D,,,D,,]3 [D,,,D,,]- [D,,,D,,]D,,, D,,,2 | [F,,C,F,][B,,F,B,] [F,,,F,,]6- | %57
 [F,,,F,,]4!mp! F,,,/[F,,,F,,]/[F,,,F,,]/[F,,,F,,]/ [F,,,F,,]/[F,,,F,,]/[F,,,F,,]/[F,,,F,,]/ | %58
 [C,,C,]3 [C,,C,]- [C,,C,]2 [C,,C,]2 | [A,,,A,,]3 [A,,,A,,]- [A,,,A,,]2 [A,,,A,,]2 | %60
 [A,,,A,,]3 [A,,,A,,]- [A,,,A,,]2 [A,,,A,,]2 | [E,,,E,,]3 [E,,,E,,]- [E,,,E,,]2 [E,,,E,,]2 | %62
 [E,,,E,,]3 [E,,,E,,]- [E,,,E,,]2 [E,,,E,,]2 | [E,,,E,,]3 [E,,,E,,]- [E,,,E,,]2 [E,,,E,,]2 | %64
 [G,,,G,,]3 [G,,,G,,]- [G,,,G,,]2 [G,,,G,,]2 | [G,,,G,,]3 [G,,,G,,]- [G,,,G,,]2 [G,,,G,,]2 | %66
 [G,,,G,,]3 [G,,,G,,]- [G,,,G,,]2 [G,,,G,,]2 | [G,,,G,,]3 [G,,,G,,]- [G,,,G,,]2 [G,,,G,,]2 | %68
 [A,,,A,,]3 [A,,,A,,]- [A,,,A,,]2 [A,,,A,,]2 | [A,,,A,,]3 [A,,,A,,]- [A,,,A,,]2 [F,,,F,,]2 :|2 %70
 [C,,C,]3 [C,,C,]- [C,,C,]2 [C,,C,]2 |[I:staff -1] [CEG]8 | %72
[I:staff +1] C,,3 C,,- C,,C,,[C,,C,][C,,C,] | F,,3 F,,- F,,F,,[F,,F,][F,,F,] | %74
 C,,3 C,,- C,,C,,[C,,C,][C,,C,] | B,,,3 B,,,- B,,,B,,,[B,,,B,,][B,,,B,,] | %76
 A,,,3 A,,,- A,,,A,,,[A,,,A,,][A,,,A,,] | F,,,3 F,,,- F,,,F,,,[F,,,F,,][F,,,F,,] | %78
 [C,,C,]4 [G,,,G,,]4 | [A,,,A,,]>[B,,,B,,]- [B,,,B,,][C,,C,]- [C,,C,]4- | [C,,C,]8 |] %81
V:3
 C,,8- | C,,8 | G,,,8- | G,,,8 | A,,,8- | A,,,8- | A,,,8 | x8 | x8 | x8 | x8 | x8 | x8 | x8 | x8 | %15
 x8 | x8 | x8 | x8 | x8 | x8 | x8 | x8 | x8 | x8 | x8 | x8 | x8 | x8 | x8 | x8 |: x8 | x8 | x8 | %34
 x3 [B,,,B,,]2- [B,,,B,,]2 x | x8 | x8 | x8 | x8 | x8 | x8 |1[I:staff -1] [CE]8- | C8 | x8 | x8 | %45
 x8 | x8 | x8 | x8 | x8 | x3[I:staff +1] F,,,- F,,,F,,, x2 | x8 | x8 | x8 | x8 | x8 | x8 | x8 | %58
 x8 | x8 | x8 | x8 | x8 | x8 | x8 | x8 | x8 | x8 | x2[I:staff -1] C4 x2 | x8 :|2 x8 | %71
[I:staff +1] [C,,C,]3 [C,,C,]- [C,,C,]2 [C,,C,]2 | x8 | x8 | x8 | x8 | x8 | x8 | x8 | x8 | x8 |] %81
V:4
 x8 | x8 | x8 | x8 | x8 | x8 | x8 | x8 | x8 | x8 | x8 | x8 | x8 | x8 | x8 | x8 | x8 | x8 | x8 | %19
 x8 | x8 | x8 | x8 | x8 | x8 | x8 | x8 | x8 | x8 | x8 | x8 |: x8 | x8 | x8 | x8 | x8 | x8 | x8 | %38
 x8 | x8 | x8 |1 [C,,C,]3 [C,,C,]- [C,,C,]2 [C,,C,]2 | [C,,C,]3 [C,,C,]- [C,,C,]2 [C,,C,]2 | x8 | %44
 x8 | x8 | x8 | x8 | x8 | x8 | x8 | x8 | x8 | x8 | x8 | x8 | x8 | x8 | x8 | x8 | x8 | x8 | x8 | %63
 x8 | x8 | x8 | x8 | x8 | x8 | x8 :|2 x8 | x8 | x8 | x8 | x8 | x8 | x8 | x8 | x8 | x8 | x8 |] %81

